X:1
T:Concert Étude after Paganini's 2nd Caprice
T:Concert Étude after Paganini's 2nd Caprice
T:Op. 10, No. 5
T:Robert Schumann
C:Robert Schumann
%%score { ( 1 5 6 7 ) | ( 2 3 4 ) }
L:1/8
Q:1/4=120
M:6/8
K:D
V:1 treble nm="Piano" snm="Pno."
V:5 treble 
V:6 treble 
V:7 treble 
V:2 bass 
V:3 bass 
V:4 bass 
V:1
 B/b/^a/b/=a/b/ g/b/f/b/e/b/ | d/b/c/b/B/b/ ^A/b/B/b/d/b/ | c/^a/g/a/f/a/ e/a/d/a/c/a/ | %3
 B/^a/^A/a/B/a/ c/a/d/a/e/a/ | d/b/f/b/e/b/ d/b/c/b/B/b/ | G/d'/b/d'/a/d'/ g/d'/f/d'/g/d'/ | %6
 f/d'/b/d'/g/d'/ f/d'/^e/d'/f/d'/ | ^e/d'/d/d'/c/d'/ B/d'/g/d'/e/d'/ | %8
 f/c'/^a/c'/g/c'/ f/c'/=e/c'/c/c'/ | d/b/B/d'/a/c'/ g/b/f/b/^e/b/ | %10
 f/^a/f/f'/^e/^g/ =e/a/d/b/c/c'/ | B/d'/B/b/B/=a/ B/g/B/f/=G/^e/ | F/f/F/^a/G/^e/ F/f/F/a/G/e/ | %13
 F/f/F/^a/F/c'/ F/f'/F/c'/F/a/ | [Fcf]3 !fermata!z3 | d/a/^g/a/=g/a/ ^e/a/^f/a/=e/a/ | %16
 d/a/A/a/G/a/ A/a/c/a/d/a/ | c/a/^g/a/=g/a/ ^d/a/e/a/=d/a/ | c/a/A/a/B/a/ c/a/d/a/e/a/ | %19
 f/d'/a/d'/^g/d'/ a/d'/f/d'/d/c'/ | d/c'/g/b/g/b/ e/b/c/b/c/b/ | c/b/f/a/f/a/ d/a/B/a/B/a/ | %22
 B/a/e/g/e/g/ c/g/A/g/c/g/ | [df]/z/[Af]/z/[^G^e]/ z/ [Af]/z/[=G=e]/z/[Fd]/ z/ | %24
 [Ac]/z/[CAc]/z/[DAd]/ z/ [EAe]/z/[FAf]/z/[GAg]/ z/ | [FAf] f/A/^e/^G/ f/A/=e/=G/d/F/ | %26
 c/A/[Cc]/A/[Dd]/A/ [Ee]/A/[Ff]/A/[Gg]/A/ | [Ff] a/d/g/c/ f/d/g/c/=c/a/ | %28
 B/b/B/b/B/b/ B/b/e/e'/d/d'/ | c/c'/d/d'/e/e'/ f/f'/d/d'/B/b/ | A/a/d/f/F/f/ G/g/c/e/G/e/ | %31
 F/[df]/E/[ce]/D/[Bd]/ C/[=Ac]/B,/[GB]/A,/[FA]/ | D/[Bd]/C/[Ac]/B,/[GB]/ A,/[FA]/G,/[EG]/G,/[CE]/ | %33
 [F,D] z/ C/D/c/ d/ z/ z z | B/B,/^A,/B,/ B/B,/ ^A/B,/=A/B,/^G/B,/ | %35
 =G/B,/F/B,/E/B,/ ^D/B,/=D/B,/C/B,/ | B,/B/^A/B/ B,/B/ =C/B/^C/B/D/B/ | %37
 ^D/B/E/B/F/B/ A/B/^G/B/F/B/ | e/E/^D/E/ e/E/ ^d/E/=d/E/^c/E/ | =c/E/B/E/A/E/ ^G/E/=G/E/F/E/ | %40
 E/e/^d/e/ E/e/ =F/e/^F/e/=G/e/ | ^G/e/A/e/B/e/ d/e/c/e/B/e/ | a/A/^G/A/ a/A/ a/A/^g/A/=g/A/ | %43
 f/d/c/d/ d'/d/ d'/e/d'/^e/d'/f/ | g'/g/f/g/ g'/g/ g'/g/f'/g/=f'/g/ | %45
 e'/=c'/b/c'/!8va(! =c''/c'/ c''/d'/c''/^d'/c''/e'/ | =c''/=f'/e'/f'/ [=c'c''] [d'd'']2 [c'c''] | %47
 [bb'][_b_b'][aa'] [_a_a'][gg'][ee'] | [=f=f']!8va)! z A =c2 _B- | BA_A G=d>=c | %50
 =f/=F/E/F/ f/F/ e/F/_e/F/d/F/ | _d/=F/=c/F/_B/F/ A/F/_A/F/G/F/ | =F/=f/e/f/ F/f/ _G/f/=G/f/_A/f/ | %53
 =A/=f/_B/f/=c/f/ _e/f/d/f/c/f/ | _b/_B/A/B/ b/B/ a/B/_a/B/g/B/ | _g/_B/=f/B/_e/B/ d/B/_d/B/=c/B/ | %56
 _B/_b/a/b/ B/b/ _c/b/=c/b/_d/b/ | =d/_b/_e/b/=f/b/ _a/b/g/b/f/b/ | %58
 _e'/_e/d/e/ e'/e/ e'/e/d'/e/_d'/e/ | =c'/_a/g/a/ _a'/a/ a'/_b/a'/=b/a'/c'/ | %60
 ^g'/^c'/^b/c'/ c'/c/ c'/c/b/c/=b/c/ | ^a/f/^e/f/ f'/f/ f'/^g/f'/^^g/f'/a/ | %62
 f'/b/^a/b/ [ff'] [^g^g']2 [ff'] | [^e^e'][=e=e'][^d^d'] [=d=d'][cc'][^A^a] | [Bb]/ z/ z ^d f2 e- | %65
 e^d=dx^^f^g- | [cg]/f/^e/f/ c/^a/ B/b/^A/c'/B/d'/ | c/e'/d/d'/e/c'/ f/b/g/b/^g/b/ | %68
 ^a/f/^e/f/ =e'/^A/ d'/B/c'/c/b/d/ | ^a/e/b/d/c'/c/ d'/B/e'/B/^e'/B/ | %70
 z/ [ff']/[^e^e']/[ff']/z/[ff']/ z/ [ff']/[ee']/[ff']/z/[ff']/ | %71
 z/ [ff']/[^e^e']/[ff']/z/[ff']/ z/ [ff']/[ee']/[ff']/z/[ff']/ | %72
 z/ [ff']/[^e^e']/[ff']/z/[ff']/ z/ [gg']/z/[ff']/z/[=e=e']/ | %73
 z/ [dd']/z/[ee']/z/[ff']/ z/ [ee']/z/[dd']/z/[cc']/ | !fermata!z6 | B/b/^a/b/=a/b/ g/b/f/b/e/b/ | %76
 d/b/c/b/B/b/ ^A/b/B/b/d/b/ | c/^a/g/a/f/a/ e/a/d/a/c/a/ | B/^a/^A/a/B/a/ c/a/d/a/e/a/ | %79
 d/b/^d/b/e/g/ c/a/=d/f/B/g/ | c/e/^A/f/B/d/ G/B/d/^e/g/b/ | z/ ^A/c/f/^a/g/ f/a/c'/b/a/c'/ | %82
 e'/d'/c'/g'/f'/e'/ d'/c'/b/^a/g/f/ | b/c'/d'/b/c'/^a/ =c'/=a/b/^g/^a/=g/ | %84
 =a/f/^g/^e/=g/=e/ f/^d/^e/=d/=e/c/ | d/^e/g/e/f/B/{/d} Tc3{^Bc} | %86
 =B/c/d/B/c/^A/ =c/=A/B/^G/^A/=G/ | A/F/^G/^E/=G/=E/ F/^D/^E/=D/=E/C/ | %88
 D/^E/G/E/F/B,/{/D} TC3{^B,C} | B,/B/^A/B/F/f/ B/b/^a/b/f/f'/ | b/b'/^a'/b'/f/f'/ B/b/^a/b/F/f/ | %91
 B,/b/^a/b/d/b/ B/b/F/b/D/b/ | B, [^A^a][Bb] !fermata!B,3 |] %93
V:2
 B,,[K:treble] ^A=A[K:bass] E, FE | B,, CB, B,,, B,D | F,, GF C, DC | F,, ^A,B, F,,, DE | %4
 B,, FE B,, CB, | F,,[K:treble] BA[K:bass] E,,[K:treble] FG | %6
[K:bass] B,,[K:treble] BG[K:bass] D,, ^EF | G,, DC G,, G^E | x F,2!ped! F2 x!ped-up! | %9
 x F,2!ped! F2 x!ped-up! | x F,2!ped! F2 x!ped-up! | x F,2!ped! F2 x!ped-up! | %12
 F,, [C,^A,][D,B,] F,, [C,A,][D,B,] | F,,[C,^A,] F,,[C,A,] F,,[C,A,] | [F,,C,^A,]3 !fermata!z3 | %15
 x6 | x6 | [E,A,E]3[I:staff -1] FGF |[I:staff +1] x6 | x2 x x2[I:staff -1] F, | %20
 G,[I:staff +1] x2 x[I:staff -1] A,[I:staff +1]E, | F, x2 x[I:staff -1] G,[I:staff +1]D, | %22
[I:staff -1] GEB,[I:staff +1] A,3- | A, A,/D,/B,/D,/ A,/D,/C/D,/D/D,/ | %24
 E/D,/A,/D,/[A,B,]/D,/ [A,C]/D,/[A,D]/D,/[A,E]/D,/ | [A,D]/D,/A,/D,/B,/D,/ A,/D,/C/D,/D/D,/ | %26
 E/D,/A,/D,/[^G,B,]/D,/ [=G,C]/D,/[F,D]/D,/[E,E]/D,/ | [F,D]/D,/F/D,/E/D,/ D/D,/E/D,/F/D,/ | %28
 G/D,/D/D,/B,/D,/ G,/D,/B,/D,/^G,/D,/ | A,/D,/B,/D,/C/D,/ D/D,/B,/D,/G,/D,/ | %30
 F,/D,/A,/D,/D/D,/ E,/D,/G,/D,/C/D,/ | D/D,/^A,/D,/B,/D,/ F,/D,/G,/D,/=C/D,/ | %32
 B,/G,,/^D,/G,,/E,/G,,/ ^B,,/A,,/C,/A,,/E,/A,,/ | D,/C,/D,/ z/ z z/[I:staff -1] G/F/E/D/C/ | %34
[I:staff +1] B,/ z/ z [^D,,B,,^D,] [F,,B,,F,]2 !^![E,,B,,E,]- | %35
 [E,,B,,E,][F,,B,,F,][G,,B,,G,] [B,,F,][^G,,^E,][^A,,=E,] | %36
 [B,,^D,] z [D,F,] [E,G,][^E,^G,][F,A,]- | [F,A,][E,^G,][^D,F,] [B,,D,][C,E,][D,F,] | %38
 [E,^G,] z [^G,,E,G,] [B,,E,B,]2 [A,,E,A,]- | [A,,E,A,][B,,E,B,][=C,E,=C] [E,B,][^C,^A,][^D,=A,] | %40
 [B,,E,^G,] z [G,B,] [A,=C][^A,^C][B,=D]- | [B,D][=A,C][^G,B,] [E,G,][F,A,][G,B,] | %42
 [A,C][B,D][CE] [DF][B,D][CE] |[K:treble] [DF][EG][FA] [G_B][^G=B][A=c] | %44
 [=GB][A=c][Bd] [ce][Ac][Bd] | [=ce][d=f][eg] [f_a][^f=a][g_b] | [a=c'] z[K:bass] A, _B,2 A, | %47
 D/=F/_D/F/=C/F/ =B,/F/_B,/F/G,/F/ | A,/=F/E/F/ x[K:treble] E/=F/_E/F/D/F/ | %49
 _D/=F/=C/F/=B,/F/ ^A,/F/B,/F/C/E/ | A, z[K:bass] [A,,=F,A,] [=C,F,=C]2 [_B,,F,_B,]- | %51
 [B,,F,B,][A,,=F,A,][G,,F,G,] [=F,,F,][=B,,=D][_B,,_D] | [A,,=C] z [A,C] [_B,_D][=B,=D][C_E]- | %53
 [CE][_B,D][=A,=C] [=F,A,][G,B,][A,C] | [_B,D] z [D,B,D] [=F,B,=F]2 [_E,B,_E]- | %55
 [E,B,E][D,_B,D][=C,B,=C] [_B,,B,][=E,=G][_E,_G] | [=D,=F] z[K:treble] [D=F] [_E_G][=E=G][F_A]- | %57
 [FA][_EG][D=F] [_B,D][=CE][DF] | [_EG] z [G,_B] [_B,_d]2 [G,B] | %59
 [_A,=c] z [c_e] [_d_f][=d=f][e_g] | [^e^g] z [^E,^G] [^G,B]2 [E,G] | %61
 [F,^A] z [Ac] [Bd][^B^d][c=e] | [^df] z ^D E2 D | ^G/B/=G/B/F/B/ ^E/B/=E/B/C/B/ | %64
 [B,^D]/B/^A/B/ B,/B/ A/B/=A/B/^G/B/ | =G/B/^F/B/^E/B/ =E/B/^A/B/^E/B/ | %66
 ^A/F,/F/F,/=E/F,/ D/F,/C/F,/B,/F,/ |[K:bass] ^A,/F,/B,/F,/C/F,/ D/F,/E/F,/^E/F,/ | %68
 F/F,/^A,/F,/C/F,/ B,/F,/A,/F,/B,/F,/ | C/F,/D/F,/E/F,/ F/F,/G/F,/^G/F,/ | x z x [B,DG]2 [=A,CF]- | %71
 [A,CF][G,B,=E][^G,B,^E] [^A,F]2 [C=E] | [B,D]2 [B,D] [^A,C][B,D][CE] | %73
 [DF][CE][B,D] [CE][DF][EG] | !fermata!z6 | B,,[K:treble] ^A=A[K:bass] x FE | x CB, x B,D | %77
 x GF x DC | x ^A,B, x DE | %79
 B,,[I:staff -1] [B,FAB][EG][I:staff +1] [A,,E,G,A,][=D,F,][I:staff -1] [G,D^EG] | %80
[C=E][I:staff +1] [F,,C,E,F,][B,,D,][I:staff -1] [F,B,D^E]3 |[I:staff +1] x6 | x6 | x6 | x6 | x6 | %86
 B,, [^G,^E][=G,=E] B,, [D^E][^C=E] | B,, [D,B,][C,^A,] B,, B,2 | B,, B,2 B,, B,^A, | %89
 x ^A,B, x A,B, | x ^A,B, x A,B, | x ^A,B, x A,B, | B,,, [^A,,^A,][B,,B,] !fermata![B,,,B,,]3 |] %93
V:3
 x[K:treble] [B,^DF]2[K:bass] x [G,B,]2 | x [D,F,]2 x [D,F,]2 | x [F,^A,]2 x [F,A,]2 | %3
 x [C,F,]2 x [F,^A,]2 | x [F,B,]2 x [D,F,]2 | x[K:treble] [B,D]2[K:bass] x[K:treble] [B,E]2 | %6
[K:bass] x[K:treble] [B,D]2[K:bass] x [B,D]2 | x [G,B,]2 x [G,B,]2 | F,,F,^A, FF,E, | %9
 D,F,B, FF,D, | C,F,C FF,^A,, | B,,F,D FF,[D,B,] | x6 | x6 | x6 | x6 | x6 | x6 | x6 | x6 | x6 | %21
 x6 | E,xxxG,E, | D, x x x2 x | x6 | x6 | x6 | x6 | x6 | x6 | x6 | x6 | x6 | x6 | x6 | x2 x F,,3- | %36
 F,, x x x2 x | x6 | x6 | x2 x B,,3- | x6 | x6 | x6 |[K:treble] x6 | x6 | x6 | %46
 x x[K:bass] =F,/=F/ F,/F/F,/F/F,/F/ | =F,2 F, F,2 F, | =F, z F,/=F/[K:treble] x x2 | x6 | %50
 x2[K:bass] x4 | x6 | x6 | x6 | x6 | x6 | x2[K:treble] x4 | x6 | x6 | x6 | x6 | x6 | %62
 x x B,/B/ B,/B/B,/B/B,/B/ | B,2 B, B,2 B, | x6 | x2 x E2 ^E | x6 |[K:bass] x6 | x6 | x6 | %70
 [F,C^A] x [^A,CF] F,3 | F,3 F,3 | F,3 F,3 | F,3 F,3 | x6 | %75
 x[K:treble] [B,^DF]2[K:bass] E, [G,B,]2 | B,, [D,F,]2 B,,, [D,F,]2 | F,, [F,^A,]2 C, [F,A,]2 | %78
 F,, [C,F,]2 F,,, [F,^A,]2 | x6 | x6 | x6 | x6 | x6 | x6 | x6 | x6 | x2 x x ^G,=G, | %88
 x G,F, x E,F, | B,, [D,F,]2 B,, [D,F,]2 | B,, [D,F,]2 B,, [D,F,]2 | B,, [D,F,]2 B,, [D,F,]2 | %92
 x6 |] %93
V:4
 x[K:treble] x2[K:bass] x3 | x6 | x6 | x6 | x6 | x[K:treble] x2[K:bass] x[K:treble] x2 | %6
[K:bass] x[K:treble] x2[K:bass] x3 | x6 | x3 x F,2 | x3 x F,2 | x3 x F,2 | x3 x F,2 | x6 | x6 | %14
 x6 | x6 | x6 | x6 | x6 | x6 | x6 | x6 | x6 | x6 | x6 | x6 | x6 | x6 | x6 | x6 | x6 | x6 | x6 | %33
 x6 | x6 | x6 | x6 | x6 | x6 | x6 | x6 | x6 | x6 |[K:treble] x6 | x6 | x6 | x2[K:bass] x4 | x6 | %48
 x3[K:treble] x3 | x6 | x2[K:bass] x4 | x6 | x6 | x6 | x6 | x6 | x2[K:treble] x4 | x6 | x6 | x6 | %60
 x6 | x6 | x6 | x6 | x6 | x6 | x6 |[K:bass] x6 | x6 | x6 | x6 | x6 | x6 | x6 | x6 | %75
 x[K:treble] x2[K:bass] x3 | x6 | x6 | x6 | x6 | x6 | x6 | x6 | x6 | x6 | x6 | x6 | x6 | x6 | x6 | %90
 x6 | x6 | x6 |] %93
V:5
 x6 | x6 | x6 | x6 | x6 | x6 | x6 | x6 | x6 | x6 | x6 | x6 | x6 | x6 | x6 | %15
[I:staff +1]{/D,}[I:staff -1] [A,F][B,=F][CE] D3- | D3 x2 x | x6 | ^D[EG][=DF] [A,E][FA][EG] | %19
 [DF] F^E FA^A | BGD CA,G | AFC B,G,F | x6 | x6 | x6 | x6 | x6 | x6 | x6 | x6 | x6 | x6 | x6 | x6 | %34
 x6 | x6 | x6 | x6 | x6 | x6 | x6 | x6 | x6 | x6 | x6 | x2!8va(! x4 | x6 | x6 | x!8va)! x5 | x6 | %50
 x6 | x6 | x6 | x6 | x6 | x6 | x6 | x6 | x6 | x6 | x6 | x6 | x6 | x6 | x6 | x2 x c3 | x6 | x6 | %68
 x6 | x6 | x6 | x6 | x6 | x6 | x6 | x6 | x6 | x6 | x6 | x6 | x6 | [F,^A,CF]3- [F,A,CF]3 | %82
 x [B,E]^A, F, [CE]2 | B, [^G^e][=G=e] B, [d^e][^c=e] | B, [DB][C^A] B, ^G=G | %85
 B, GF B, [=E^B][F^A] | x6 | x6 | x6 | x6 | x6 | x6 | x6 |] %93
V:6
 x6 | x6 | x6 | x6 | x6 | x6 | x6 | x6 | x6 | x6 | x6 | x6 | x6 | x6 | x6 | x2 x ^GA=G | %16
 ^EF=E [DF][A,E][F,D] | x6 | x6 | x6 | x6 | x6 | x6 | x6 | x6 | x6 | x6 | x6 | x6 | x6 | x6 | x6 | %32
 x6 | x6 | x6 | x6 | x6 | x6 | x6 | x6 | x6 | x6 | x6 | x6 | x6 | x2!8va(! x4 | x6 | x6 | %48
 x!8va)! x5 | x6 | x6 | x6 | x6 | x6 | x6 | x6 | x6 | x6 | x6 | x6 | x6 | x6 | x6 | x6 | x6 | x6 | %66
 x6 | x6 | x6 | x6 | x6 | x6 | x6 | x6 | x6 | x6 | x6 | x6 | x6 | x6 | x6 | x6 | x6 | x6 | %84
 x2 x x B2 | x B2 x2 x | x6 | x6 | x6 | x6 | x6 | x6 | x6 |] %93
V:7
 x6 | x6 | x6 | x6 | x6 | x6 | x6 | x6 | x6 | x6 | x6 | x6 | x6 | x6 | x6 | x6 | x6 | x6 | x6 | %19
 x6 | x6 | x6 | x6 | x6 | x6 | x6 | x6 | x6 | x6 | x6 | x6 | x6 | x6 | x6 | x6 | x6 | x6 | x6 | %38
 x6 | x6 | x6 | x6 | x6 | x6 | x6 | x2!8va(! x4 | x6 | x6 | x!8va)! x5 | x6 | x6 | x6 | x6 | x6 | %54
 x6 | x6 | x6 | x6 | x6 | x6 | x6 | x6 | x6 | x6 | x6 | x6 | x6 | x6 | x6 | x6 | x6 | x6 | x6 | %73
 x6 | x6 | x6 | x6 | x6 | x6 | x6 | x6 | x6 | F, GF x B^A | x6 | x6 | x6 | x6 | x6 | x6 | x6 | x6 | %91
 x6 | x6 |] %93

